X: 1
T: the Leitrim Fancy hornpipe
R: hornpipe
Z: 2020 John Chambers <jc:trillian.mit.edu>
S: https://www.facebook.com/groups/Fiddletuneoftheday/
S: https://www.facebook.com/groups/Fiddletuneoftheday/photos/
M: 4/4
L: 1/8
K: D
AG |\
(3FGF EF DEFG | (3ABA GB A2 de | fefg agec |[1,3 dcAF GB :|[2,4 d2 dc d2 :|
de \
|::\
fefg ageg | fefg a2 (3efg | agec dfec |[1 dcAF G2 eg :|[2 Addc d3e :|
|[3 dcAF GBAG |]\
(3FGF EF DEFG | (3ABA GB A2 de | fdge agec | d2 dc d2 |]
